X:127
T:Eleanor Neary's
R:hornpipe
D:De Dannan: Ballroom
D:Kathleen Collins: My Book of Songs
Z:id:hn-hornpipe-127
M:C|
L:1/8
K:A
AB | cBcd cBAG | FCFG AGAB | cB (3ABc fecA | BcAF E2AB |
cBcd cBAG | FCFG Aagf | ecdB cABG | A2GB A2 :|
|: ED | CA,CE FDFA | (3GFE BG AGAB | cBAc fedc | BcAF E2ED |
CA,CE FDFA | (3GAB (3EFG Aagf | ecdB cABG | A2GB A2 :|
P:variations
|: AB | c3d cBAG | FCFG AGAB | cB (3ABc fcec | (3BcB AF E2AB |
~c3d cBAG | FCFG Aagf | ecdB (3cde BG | A2AG A2 :|
|: ED | C3E F3A | (3GAB (3EFG AGAB | cBAc dcdc | (3BcB AF ECDB, |
(3CBA, CE FDFA | (3GFE BG Aagf | ecdB (3cde BG | A2AG A2 :|

